usr/share/icons/biglinux-icons-material-dark/symbolic/actions/edit-table-cell-split.svg

<svg xmlns="http://www.w3.org/2000/svg" viewBox="0 0 16 16">
<defs id="defs3051">
<style id="current-color-scheme" type="text/css">
.ColorScheme-Contrast{color:#dedede}.ColorScheme-NegativeText{color:#da4453}
</style>
</defs>
<path d="M2 2v12h12V2zm1 1h3v2h1V3h2v2h1V3h3v2h-3v1h3v3h-3v1h3v3h-3v-3H9v3H7v-3H6v3H3v-3h3V9H3V6h3V5H3z" class="ColorScheme-Contrast" style="fill:currentColor;fill-opacity:1;stroke:none"/>
<path d="M426.714 535.79v7h6v-7zm1 1h4v1l-1 1.5 1 1.5v1h-4v-1l1-1.5-1-1.5z" class="ColorScheme-NegativeText" style="fill:currentColor;fill-opacity:1;stroke:none" transform="translate(-421.714 -531.79)"/>
</svg>

<svg xmlns="http://www.w3.org/2000/svg" viewBox="0 0 16 16">
  <defs id="defs3051">
    <style type="text/css" id="current-color-scheme">
      .ColorScheme-Text {
        color:#dedede;
      }
      .ColorScheme-Highlight {
        color:#3daee9;
      }
      .ColorScheme-NegativeText {
        color:#da4453;
      }
      </style>
  </defs>
  <g
     transform="translate(-421.71429,-531.79074)">
  <path 
        style="fill:currentColor;fill-opacity:1;stroke:none"
        d="M 2 2 L 2 14 L 3 14 L 9 14 L 10 14 L 13 14 L 14 14 L 14 2 L 2 2 z M 3 3 L 6 3 L 6 5 L 7 5 L 7 3 L 9 3 L 9 5 L 10 5 L 10 3 L 11 3 L 12 3 L 13 3 L 13 5 L 12 5 L 11 5 L 10 5 L 10 6 L 11 6 L 12 6 L 13 6 L 13 9 L 12 9 L 11 9 L 10 9 L 10 10 L 11 10 L 12 10 L 13 10 L 13 13 L 12 13 L 11 13 L 10 13 L 10 10 L 9 10 L 9 13 L 7 13 L 7 10 L 6 10 L 6 13 L 3 13 L 3 10 L 6 10 L 6 9 L 3 9 L 3 6 L 6 6 L 6 5 L 3 5 L 3 3 z "
        class="ColorScheme-Text"
      transform="translate(421.71429,531.79074)"
        />
  <path
     d="m 426.71429,535.79074 0,7 6,0 0,-7 z m 1,1 4,0 0,1 -1,1.5 1,1.5 0,1 -4,0 0,-1 1,-1.5 -1,-1.5 z"
      style="fill:currentColor;fill-opacity:1;stroke:none" 
     class="ColorScheme-NegativeText"
     
      />
  </g>
</svg>
